!!!OTL: Das Lied vom Scheiden
!!!ARE: Europa, Mitteleuropa, Deutschland
!!!SCT: A0262
!!!YEM: Copyright 1995, estate of Helmut Schaffrath.
**kern
*ICvox
*Ivox
!! Mixed meters:  4/2; 6/2; 4/1
*M4/1
*k[]
*C:
{1c
=1
2g
2g
2a
2b
=2
1cc
1cc}
=3
{1ee
=4
1dd
2b
2.cc
4b
4a
4g
2a
2a
=5
*M4/2
1g
2r}
{2g
=6
*M6/2
1cc
2cc
2b
2b
4a
4g
=7
*M4/2
1a
1e}
=8
{1cc
=9
*M6/2
2b
2.a
4e
2g
1f
=10
1e
2r}
{2e
2e
2e
=11
*M4/1
1g
2f
1e
4d
4c
2d
2d
=12
*M4/2
1c
4r}
{4f
2c
=13
*M6/2
1g
2a
2.b
4cc
4dd
4b
=14
*M4/2
1cc
1g}
=15
{1cc
=16
*M6/2
2b
2.a
4e
2g
1f
=17
0e}
==
!!!AGN: Romanze, Ballade, Lied
!! Forster III 1549 No. 17
!!!ONB: ESAC (Essen Associative Code) Database: ALTDEU
!!!AMT: irregular
!!!AIN: vox
!!!EED: Helmut Schaffrath
!!!EEV: 1.0
*-
